client/src/data/flag-icon-css-master/flags/1x1/bs.svg

<svg viewBox="0 0 512 512" xmlns="http://www.w3.org/2000/svg" xmlns:xlink="http://www.w3.org/1999/xlink"><clipPath id="a"><path d="m56.6 26.4h480.4v480.3h-480.4z"/></clipPath><g clip-path="url(#a)" fill-rule="evenodd" transform="matrix(1.066 0 0 1.067 -60.4 -28.1)"><path d="m990 506.2h-980.6v-478.6h980.6z" fill="#fff"/><path d="m990 370.6h-980.6v-201.4h980.6z" fill="#ffe900"/><path d="m990 506.2h-980.6v-159.5h980.6zm0-319h-980.6v-159.3h980.6z" fill="#08ced6"/><path d="m9 25.9c2.1 0 392.3 237 392.3 237l-393.5 242.4z"/></g></svg>

<svg xmlns="http://www.w3.org/2000/svg" id="flag-icon-css-bs" viewBox="0 0 512 512">
  <defs>
    <clipPath id="bs-a">
      <path fill-opacity=".7" d="M56.6 26.4H537v480.3H56.6z"/>
    </clipPath>
  </defs>
  <g fill-rule="evenodd" clip-path="url(#bs-a)" transform="matrix(1.066 0 0 1.067 -60.4 -28.1)">
    <path fill="#fff" d="M990 506.2H9.4V27.6H990z"/>
    <path fill="#ffe900" d="M990 370.6H9.4V169.2H990z"/>
    <path fill="#08ced6" d="M990 506.2H9.4V346.7H990zm0-319H9.4V27.9H990z"/>
    <path d="M9 25.9c2.1 0 392.3 237 392.3 237L7.8 505.3 9 25.9z"/>
  </g>
</svg>
